packages/core/src/svgs/tokens/mono/ADAPAD.svg

<svg width="24" height="24" viewBox="0 0 24 24" fill="none" xmlns="http://www.w3.org/2000/svg">
<path fill-rule="evenodd" clip-rule="evenodd" d="M22 20.1228C22 20.9854 17.525 21.6854 11.9999 21.6854C6.47498 21.6854 2 20.9854 2 20.1228C2 19.2603 6.47498 18.5603 11.9999 18.5603C17.525 18.5603 22 19.2603 22 20.1228ZM5.36874 20.2603C5.36874 20.304 5.09373 20.3478 4.74373 20.3478C4.40624 20.3478 4.13123 20.304 4.13123 20.2603C4.13123 20.2103 4.40624 20.1665 4.74998 20.1665C5.09373 20.1665 5.36874 20.2103 5.36874 20.2603ZM6.23124 20.9228C6.57498 20.9228 6.85623 20.8853 6.85623 20.8353C6.85623 20.7853 6.57498 20.7478 6.23124 20.7478C5.89374 20.7478 5.61248 20.7853 5.61248 20.8353C5.61248 20.8853 5.89374 20.9228 6.23748 20.9228H6.23124ZM9.10619 20.529C9.10619 20.5791 8.76872 20.6228 8.35623 20.6228C7.94372 20.6228 7.60622 20.5791 7.60622 20.529C7.60622 20.479 7.94372 20.4353 8.35623 20.4353C8.76872 20.4353 9.10619 20.479 9.10619 20.529ZM8.63748 19.7478C8.96247 19.7478 9.22504 19.7227 9.22504 19.6853C9.22504 19.6478 8.96247 19.6228 8.63748 19.6228C8.30622 19.6228 8.04372 19.6478 8.04372 19.6853C8.04372 19.7227 8.30622 19.7478 8.63748 19.7478ZM10.1 19.4979C10.1 19.5353 9.93116 19.5603 9.72496 19.5603C9.51875 19.5603 9.35002 19.5353 9.35002 19.4979C9.35002 19.4602 9.51875 19.4353 9.72496 19.4353C9.93116 19.4353 10.1 19.4602 10.1 19.4979ZM7.82497 20.1853C8.21872 20.1853 8.54372 20.1416 8.54372 20.0915C8.54372 20.0415 8.21872 19.9978 7.82497 19.9978C7.43122 19.9978 7.10623 20.0415 7.10623 20.0915C7.10623 20.1416 7.43122 20.1853 7.82497 20.1853ZM11.9062 20.0915C11.9062 20.179 11.3437 20.2477 10.6562 20.2477C9.96879 20.2477 9.41244 20.179 9.41244 20.0915C9.41244 20.0541 9.50621 20.029 9.66254 19.9978H9.53741C8.91872 19.9978 8.41247 19.9415 8.41247 19.8728C8.41247 19.8041 8.91872 19.7478 9.53741 19.7478C10.1625 19.7478 10.6625 19.8041 10.6625 19.8728C10.6625 19.8977 10.6 19.9165 10.5062 19.9354H10.6625C11.35 19.9354 11.9124 20.004 11.9124 20.0915H11.9062ZM12.0625 21.0603C12.4563 21.0603 12.7812 21.004 12.7812 20.9353C12.7812 20.8665 12.4563 20.8104 12.0625 20.8104C11.6688 20.8104 11.3437 20.8665 11.3437 20.9353C11.3437 21.004 11.6688 21.0603 12.0625 21.0603ZM16.7687 20.4978C16.7687 20.5665 16.4312 20.6228 16.0187 20.6228C15.6062 20.6228 15.2686 20.5665 15.2686 20.4978C15.2686 20.429 15.6062 20.3729 16.0187 20.3729C16.4312 20.3729 16.7687 20.429 16.7687 20.4978ZM18.1063 20.9353C18.4312 20.9353 18.6999 20.8916 18.6999 20.8416C18.6999 20.7915 18.4312 20.7478 18.1063 20.7478C17.7812 20.7478 17.5124 20.7915 17.5124 20.8416C17.5124 20.8916 17.7812 20.9353 18.1063 20.9353ZM17.1999 20.0915C17.1999 20.1416 16.8687 20.1853 16.4499 20.1853C16.0437 20.1853 15.7061 20.1416 15.7061 20.0915C15.7061 20.0415 16.0437 19.9978 16.4562 19.9978C16.8687 19.9978 17.2062 20.0415 17.2062 20.0915H17.1999ZM19.6375 20.3103C19.975 20.3103 20.2561 20.2854 20.2561 20.2477C20.2561 20.2103 19.975 20.1853 19.6312 20.1853C19.2875 20.1853 19.0062 20.2103 19.0062 20.2477C19.0062 20.2854 19.2875 20.3103 19.6312 20.3103H19.6375ZM20.4437 19.8102C20.4437 19.8479 20.2749 19.8728 20.0687 19.8728C19.8624 19.8728 19.6937 19.8479 19.6937 19.8102C19.6937 19.7728 19.8624 19.7478 20.0687 19.7478C20.2749 19.7478 20.4437 19.7728 20.4437 19.8102ZM12.0937 20.4978C12.575 20.4978 12.9687 20.4541 12.9687 20.4041C12.9687 20.354 12.575 20.3103 12.0937 20.3103C11.6125 20.3103 11.2187 20.354 11.2187 20.4041C11.2187 20.4541 11.6125 20.4978 12.0937 20.4978ZM11.9062 19.654C11.9062 19.7041 11.4624 19.7478 10.9062 19.7478C10.3563 19.7478 9.9125 19.7041 9.9125 19.654C9.9125 19.604 10.3563 19.5603 10.9125 19.5603C11.4624 19.5603 11.9062 19.604 11.9062 19.654ZM13.5938 20.2477C14.2812 20.2477 14.8374 20.179 14.8374 20.0915C14.8374 20.0541 14.7375 20.0229 14.5749 19.9978H14.7436C15.3438 19.9978 15.8313 19.9291 15.8313 19.8416C15.8313 19.7541 15.3438 19.6853 14.7436 19.6853C14.1374 19.6853 13.6499 19.7541 13.6499 19.8416C13.6499 19.8791 13.7437 19.9103 13.9 19.9415L13.5875 19.9354C12.9 19.9354 12.3374 20.004 12.3374 20.0915C12.3374 20.179 12.9 20.2477 13.5875 20.2477H13.5938ZM13.2812 19.7478C13.8249 19.7478 14.2749 19.7041 14.2749 19.654C14.2749 19.604 13.8249 19.5603 13.275 19.5603C12.725 19.5603 12.275 19.604 12.275 19.654C12.275 19.7041 12.725 19.7478 13.275 19.7478H13.2812ZM12.6562 19.4979C12.6562 19.5353 12.4062 19.5603 12.0937 19.5603C11.7812 19.5603 11.5312 19.5353 11.5312 19.4979C11.5312 19.4602 11.7812 19.4353 12.0937 19.4353C12.4062 19.4353 12.6562 19.4602 12.6562 19.4979ZM17.9187 19.9354C18.2124 19.9354 18.45 19.9103 18.45 19.8728C18.45 19.8353 18.2124 19.8102 17.9187 19.8102C17.625 19.8102 17.3875 19.8353 17.3875 19.8728C17.3875 19.9103 17.625 19.9354 17.9187 19.9354ZM6.35623 19.9354C6.66872 19.9354 6.91872 19.9103 6.91872 19.8728C6.91872 19.8353 6.66872 19.8102 6.35623 19.8102C6.04998 19.8102 5.79998 19.8353 5.79998 19.8728C5.79998 19.9103 6.04998 19.9354 6.36247 19.9354H6.35623ZM7.16872 19.5603C7.16872 19.5978 7.01872 19.6228 6.83122 19.6228C6.64373 19.6228 6.48748 19.5978 6.48748 19.5603C6.48748 19.5228 6.63748 19.4979 6.83122 19.4979C7.01872 19.4979 7.16872 19.5228 7.16872 19.5603ZM4.30623 19.9354C4.51248 19.9354 4.68124 19.9103 4.68124 19.8728C4.68124 19.8353 4.51248 19.8102 4.30623 19.8102C4.09999 19.8102 3.93124 19.8353 3.93124 19.8728C3.93124 19.9103 4.09999 19.9354 4.30623 19.9354Z" fill="white"/>
<path d="M12.0001 9.27289C12.25 9.27289 12.4501 9.07289 12.4501 8.82915C12.4501 8.57915 12.25 8.37915 12.0001 8.37915C11.7501 8.37915 11.55 8.57915 11.55 8.82915C11.55 9.07915 11.7501 9.27289 12.0001 9.27289Z" fill="white"/>
<path d="M9.1623 4.16634C9.41153 3.61351 9.81534 3.14457 10.325 2.81602C10.8349 2.48749 11.4287 2.31339 12.0351 2.3147C12.6414 2.31603 13.2345 2.49271 13.7429 2.82347C14.2511 3.15422 14.6529 3.62493 14.8998 4.17886L19.3748 14.5539C19.8123 15.5662 19.056 16.6851 17.9372 16.6851H15.9123C15.756 15.66 14.9123 15.2162 14.0686 15.3414C13.9622 14.5539 13.3811 14.4164 13.0998 14.4476C12.9122 14.1413 12.6623 13.2975 12.5498 12.9351H11.4498C11.3435 13.2975 11.081 14.1413 10.8997 14.4476C10.6186 14.4164 10.0373 14.5539 9.93098 15.3414C9.08734 15.2162 8.24354 15.66 8.08729 16.6851H6.0623C4.9373 16.6851 4.18731 15.5601 4.62481 14.5539L9.1623 4.16634ZM11.9998 6.07884C11.5248 6.95384 10.6498 8.88509 10.806 9.75378L10.8935 10.2851L11.031 11.06L10.6435 10.1351L9.8935 12.2289L11.0747 11.7225C11.131 11.6976 11.1936 11.685 11.256 11.685H12.7435C12.8061 11.685 12.8685 11.6976 12.9311 11.7225L14.0998 12.2226L13.356 10.1351L12.9685 11.06L13.1061 10.2913L13.1936 9.75378C13.3497 8.87883 12.4747 6.95384 11.9998 6.07884Z" fill="white"/>
<path d="M10.5622 16.0476C10.3118 15.9916 10.0525 15.9881 9.80063 16.0377C9.54892 16.0871 9.31019 16.1885 9.09961 16.3352C9.27082 16.1546 9.48053 16.0152 9.71327 15.9276C9.94602 15.8398 10.1957 15.8061 10.4435 15.8288C10.4935 15.3476 11.0246 15.0602 11.281 14.9727C11.0789 15.0744 10.9069 15.227 10.7819 15.4156C10.657 15.6041 10.5835 15.822 10.5684 16.0476H10.5622ZM13.8122 16.0476C14.4997 15.8977 15.0747 16.1727 15.2683 16.3352C15.098 16.1555 14.8892 16.0167 14.6576 15.9289C14.426 15.8412 14.1775 15.8071 13.9309 15.8288C13.8809 15.3476 13.3496 15.0602 13.0871 14.9727C13.2904 15.0736 13.4635 15.2258 13.5897 15.4144C13.7158 15.6031 13.7903 15.8214 13.8059 16.0476H13.8122Z" fill="white"/>
</svg>

<svg xmlns="http://www.w3.org/2000/svg" width="24" height="24" fill="none" viewBox="0 0 24 24">
    <path fill="#fff" fill-rule="evenodd" d="M22 20.123c0 .862-4.475 1.562-10 1.562s-10-.7-10-1.562 4.475-1.563 10-1.563 10 .7 10 1.563m-16.631.137c0 .044-.275.088-.625.088-.338 0-.613-.044-.613-.088 0-.05.275-.094.619-.094s.619.044.619.094m.862.663c.344 0 .625-.038.625-.088s-.281-.087-.625-.087c-.337 0-.619.037-.619.087s.282.088.625.088zm2.875-.394c0 .05-.337.094-.75.094-.412 0-.75-.044-.75-.094s.338-.094.75-.094c.413 0 .75.044.75.094m-.469-.781c.325 0 .588-.025.588-.063 0-.037-.263-.062-.588-.062-.33 0-.593.025-.593.062 0 .038.262.063.593.063m1.463-.25c0 .037-.169.062-.375.062s-.375-.025-.375-.062c0-.038.169-.063.375-.063s.375.025.375.063m-2.275.687c.394 0 .719-.043.719-.093s-.325-.094-.719-.094-.719.043-.719.093.325.094.719.094m4.081-.093c0 .087-.562.156-1.25.156s-1.244-.069-1.244-.157c0-.037.094-.062.25-.093h-.125c-.618 0-1.125-.056-1.125-.125s.507-.125 1.125-.125c.625 0 1.125.056 1.125.125 0 .025-.062.043-.156.062h.156c.688 0 1.25.069 1.25.157zm.156.968c.394 0 .72-.056.72-.125s-.326-.125-.72-.125-.718.056-.718.125.325.125.719.125m4.707-.562c0 .069-.338.125-.75.125-.413 0-.75-.056-.75-.125s.337-.125.75-.125c.412 0 .75.056.75.125m1.337.437c.325 0 .594-.043.594-.093s-.269-.094-.594-.094-.594.043-.594.094c0 .05.27.093.594.093m-.906-.843c0 .05-.331.093-.75.093-.406 0-.744-.043-.744-.093s.338-.094.75-.094c.413 0 .75.043.75.093zm2.438.218c.337 0 .618-.025.618-.062 0-.038-.281-.063-.625-.063s-.625.025-.625.063c0 .037.282.062.625.062zm.806-.5c0 .038-.17.063-.375.063-.207 0-.375-.025-.375-.063 0-.037.168-.062.375-.062.206 0 .375.025.375.062m-8.35.688c.481 0 .875-.044.875-.094s-.394-.094-.875-.094-.875.044-.875.094.394.094.875.094m-.188-.844c0 .05-.444.094-1 .094-.55 0-.994-.044-.994-.094s.444-.094 1-.094c.55 0 .994.044.994.094m1.688.594c.687 0 1.243-.069 1.243-.157 0-.037-.1-.068-.262-.093h.169c.6 0 1.087-.069 1.087-.156 0-.088-.487-.157-1.087-.157-.607 0-1.094.07-1.094.157 0 .037.094.068.25.1l-.312-.007c-.688 0-1.25.069-1.25.157 0 .087.562.156 1.25.156zm-.313-.5c.544 0 .994-.044.994-.094s-.45-.094-1-.094-1 .044-1 .094.45.094 1 .094zm-.625-.25c0 .037-.25.062-.562.062s-.563-.025-.563-.062c0-.038.25-.063.563-.063s.562.025.562.063m5.263.437c.293 0 .531-.025.531-.062 0-.038-.238-.063-.531-.063s-.532.025-.532.063c0 .037.238.062.532.062m-11.563 0c.313 0 .563-.025.563-.062 0-.038-.25-.063-.563-.063-.306 0-.556.025-.556.063 0 .037.25.062.562.062zm.813-.375c0 .038-.15.063-.338.063-.187 0-.344-.025-.344-.063 0-.037.15-.062.344-.062.188 0 .338.025.338.062m-2.863.375c.206 0 .375-.025.375-.062 0-.038-.169-.063-.375-.063s-.375.025-.375.063c0 .037.169.062.375.062" clip-rule="evenodd"/>
    <path fill="#fff" d="M12 9.273a.447.447 0 1 0 0-.894c-.25 0-.45.2-.45.45s.2.444.45.444"/>
    <path fill="#fff" d="M9.162 4.166a3.144 3.144 0 0 1 5.738.013l4.475 10.375c.437 1.012-.319 2.131-1.438 2.131h-2.025c-.156-1.025-1-1.469-1.843-1.344-.107-.787-.688-.925-.97-.893-.187-.307-.437-1.15-.55-1.513h-1.1c-.105.362-.368 1.206-.55 1.513-.28-.032-.862.106-.968.893-.844-.125-1.687.319-1.844 1.344H6.062c-1.125 0-1.875-1.125-1.437-2.131zM12 6.08c-.475.875-1.35 2.806-1.194 3.675l.088.531.137.775-.388-.925-.75 2.094 1.182-.506a.5.5 0 0 1 .181-.038h1.487q.094 0 .188.037l1.169.5-.744-2.087-.387.925.137-.769.088-.537c.156-.875-.72-2.8-1.194-3.675"/>
    <path fill="#fff" d="M10.562 16.048a1.85 1.85 0 0 0-1.462.287 1.64 1.64 0 0 1 1.344-.506c.05-.481.58-.769.837-.856a1.3 1.3 0 0 0-.713 1.075zm3.25 0c.688-.15 1.263.125 1.456.287a1.64 1.64 0 0 0-1.337-.506c-.05-.481-.581-.769-.844-.856a1.3 1.3 0 0 1 .719 1.075z"/>
</svg>
